X:1
T:[ID 5-7b]
T:[ID 5-7b]
T:Schwabisch 22.
T:Urheber unbekannt Datum in der hier transkribierten schriftlichen Quelle: 1775
C:Urheber unbekannt
C:Datum in der hier transkribierten schriftlichen Quelle: 1775
L:1/8
M:3/4
K:D
V:1 treble 
V:1
 F2 D2 F2 | F2 d2 f2 | e4 GE | F2 AF C2 | F2 D2 F2 | F2 d2 f2 | e4 GE | F6 :: c4 EC | d4 FD | %10
 e2 c2 F2 | E2 GE C2 | c4 EC | d4 FD | e2 A2 E2 | F6 :| %16

